X: 15030
T: George Ross's 'Sands'
R: hornpipe
M: 4/4
K: Cmajor
|:cd|edcB dcBA|G^FGE CEGE|FEFD B,DFA|(3GAG (3EGE CEGc|
edcB dcBA|G^FGE CEGc|AFAc BGAB|c z Bd c2:|
(3EFG|:A2 (3ABc E3c|AE (3ABc E3f|eEdE cEBE|cEBE AE^GB|
A2 (3ABc E2(3EFG|AE (3ABcE3f|(3efe (3ded (3cdc (3BcB|(3cdc (3BcB A2 a z:|

